X: 563
T: Da yengtao
L: 1/16
M: 2/4
K: A
B2 c2 B c B A [I:setbarnb 1]| 
B c F2 F2 F2 | 
B2 B2 C2 C E | 
F2 F BF4 | 
F2 B2 B c B F | 
A2 F E2< D2 E | 
F2 F2 A3 D | 
B,8 |]

@@@ Tune index: 9437
